images/blog/flipboard.svg

<svg height="44" viewBox="0 0 44 44" width="44" xmlns="http://www.w3.org/2000/svg"><g fill="none" fill-rule="evenodd"><path d="m2 0h40c1.1045695 0 2 .8954305 2 2v40c0 1.1045695-.8954305 2-2 2h-40c-1.1045695 0-2-.8954305-2-2v-40c0-1.1045695.8954305-2 2-2z" fill="#e12828"/><path d="m32 18.6666667h-6.6666667v6.6666666h-6.6666666v6.6666667h-6.6666667v-20h20z" fill="#fff"/></g></svg>

<?xml version="1.0" encoding="UTF-8"?>
<svg width="44px" height="44px" viewBox="0 0 44 44" version="1.1" xmlns="http://www.w3.org/2000/svg" xmlns:xlink="http://www.w3.org/1999/xlink">
    <!-- Generator: Sketch 49.3 (51167) - http://www.bohemiancoding.com/sketch -->
    <title>flipboard</title>
    <desc>Created with Sketch.</desc>
    <defs></defs>
    <g id="✒️-blog" stroke="none" stroke-width="1" fill="none" fill-rule="evenodd">
        <g id="article" transform="translate(-772.000000, -3472.000000)">
            <g id="newsletter" transform="translate(448.000000, 3420.000000)">
                <g id="info" transform="translate(24.000000, 20.000000)">
                    <g id="flipboard" transform="translate(300.000000, 32.000000)">
                        <path d="M2,0 L42,0 C43.1045695,-2.02906125e-16 44,0.8954305 44,2 L44,42 C44,43.1045695 43.1045695,44 42,44 L2,44 C0.8954305,44 1.3527075e-16,43.1045695 0,42 L0,2 C-1.3527075e-16,0.8954305 0.8954305,2.02906125e-16 2,0 Z" id="input-bg" fill="#E12828"></path>
                        <polygon id="Path" fill="#FFFFFF" points="32 18.6666667 25.3333333 18.6666667 25.3333333 25.3333333 18.6666667 25.3333333 18.6666667 32 12 32 12 12 32 12"></polygon>
                    </g>
                </g>
            </g>
        </g>
    </g>
</svg>
